Origami/24x24/apps/peek.svg

<svg width="24" height="24" version="1.1" viewBox="0 0 24 24" xmlns="http://www.w3.org/2000/svg">
 <path d="m12 2.5a10 10 0 0 0 -10 10 10 10 0 0 0 10 10 10 10 0 0 0 10 -10 10 10 0 0 0 -10 -10z" style="opacity:.2"/>
 <path d="M 12,2 A 10,10 0 0 0 2,12 10,10 0 0 0 12,22 10,10 0 0 0 22,12 10,10 0 0 0 12,2 Z" style="fill:#ff8e20"/>
 <path d="m12 2.5c-1.631909 0.00197-3.23854 0.404269-4.6796875 1.1699219l-2.9238281 14.820312a10 10 0 0 0 3.5566406 2.640625l1.0683594-5.603515c1.0696116 0.06078 2.3832986 0.06527 3.7499996-0.121094 1.581339-0.215637 3.280791-0.667349 4.732422-1.789062 1.451631-1.121716 2.496094-2.843378 2.496094-5.117188 0-0.881536-0.128149-1.6998125-0.355469-2.4453125-1.899958-2.2532491-4.697164-3.5545621-7.644531-3.5546875zm0.265625 2.9199219c0.402994-0.0016 0.799852 0.0205977 1.193359 0.0585937 0.796659 0.1171559 1.429162 0.3820718 1.820313 0.7617188 0.391151 0.3796473 0.720703 0.9145276 0.720703 2.2597656 0 1.2261905-0.330537 2.379526-0.941406 2.851562-0.610869 0.472035-1.661417 0.883606-2.830078 1.042969-0.825428 0.112558-1.66949 0.12776-2.4238285 0.105469l1.2304685-6.9902344c0.418348-0.061869 0.827475-0.088243 1.230469-0.0898437z" style="opacity:.2"/>
 <path d="M 12,2 C 10.368091,2.00197 8.76146,2.4032924 7.3203125,3.1689453 L 4.3173828,18.397461 c 0.9647997,1.152992 2.1771542,2.073607 3.5468752,2.693359 l 1.15625,-6.063242 c 1.069612,0.06078 2.383299,0.06527 3.75,-0.121094 1.581339,-0.215637 3.281767,-0.667348 4.733398,-1.789062 C 18.955537,11.995707 20,10.27381 20,8 20,7.118464 19.871851,6.299211 19.644531,5.553711 17.744573,3.3004619 14.947367,2.0001254 12,2 Z m 0.265625,2.9189453 c 0.402994,-0.0016 0.799853,0.021574 1.19336,0.05957 0.796659,0.1171559 1.429161,0.3820719 1.820312,0.7617189 C 15.670448,6.1198815 16,6.654762 16,8 c 0,1.2261905 -0.330537,2.379634 -0.941406,2.85167 -0.610869,0.472035 -1.660441,0.882852 -2.829102,1.042215 -0.825428,0.112558 -1.670466,0.128736 -2.4248045,0.106445 L 11.035156,5.008789 c 0.418348,-0.061869 0.827475,-0.088243 1.230469,-0.089844 z" style="fill:#ffffff"/>
 <path d="M 12,2 A 10,10 0 0 0 2.0705,10.926 10,9.5 0 0 1 12,2.5 10,9.5 0 0 1 21.961,11.2235 10,10 0 0 0 12,2 Z m 9.961,9.2235 A 10,10 0 0 1 22,12 10,9.5 0 0 0 21.961,11.2235 Z M 2.0705,10.926 A 10,9.5 0 0 0 2.0461,11.122 10,10 0 0 1 2.0705,10.926 Z M 2.0461,11.122 A 10,10 0 0 0 2.0002,12 10,9.5 0 0 1 2.0461,11.122 Z" style="fill:#ffffff;opacity:.2"/>
</svg>

<svg xmlns="http://www.w3.org/2000/svg" width="24" height="24" version="1.1" viewBox="0 0 24 24">
 <path style="opacity:0.2" d="m 12,2.5 a 10,10 0 0 0 -10,10 10,10 0 0 0 10,10 10,10 0 0 0 10,-10 10,10 0 0 0 -10,-10 z"/>
 <path style="fill:#ff8e20" d="M 12,2 A 10,10 0 0 0 2,12 10,10 0 0 0 12,22 10,10 0 0 0 22,12 10,10 0 0 0 12,2 Z"/>
 <path style="opacity:0.2" d="M 12 2.5 C 10.368091 2.50197 8.76146 2.904269 7.3203125 3.6699219 L 4.3964844 18.490234 A 10 10 0 0 0 7.953125 21.130859 L 9.0214844 15.527344 C 10.091096 15.588124 11.404783 15.592614 12.771484 15.40625 C 14.352823 15.190613 16.052275 14.738901 17.503906 13.617188 C 18.955537 12.495472 20 10.77381 20 8.5 C 20 7.618464 19.871851 6.8001875 19.644531 6.0546875 C 17.744573 3.8014384 14.947367 2.5001254 12 2.5 z M 12.265625 5.4199219 C 12.668619 5.4183219 13.065477 5.4405196 13.458984 5.4785156 C 14.255643 5.5956715 14.888146 5.8605874 15.279297 6.2402344 C 15.670448 6.6198817 16 7.154762 16 8.5 C 16 9.7261905 15.669463 10.879526 15.058594 11.351562 C 14.447725 11.823597 13.397177 12.235168 12.228516 12.394531 C 11.403088 12.507089 10.559026 12.522291 9.8046875 12.5 L 11.035156 5.5097656 C 11.453504 5.4478966 11.862631 5.4215226 12.265625 5.4199219 z"/>
 <path style="fill:#ffffff" d="M 12,2 C 10.368091,2.00197 8.76146,2.4032924 7.3203125,3.1689453 L 4.3173828,18.397461 c 0.9647997,1.152992 2.1771542,2.073607 3.5468752,2.693359 l 1.15625,-6.063242 c 1.069612,0.06078 2.383299,0.06527 3.75,-0.121094 1.581339,-0.215637 3.281767,-0.667348 4.733398,-1.789062 C 18.955537,11.995707 20,10.27381 20,8 20,7.118464 19.871851,6.299211 19.644531,5.553711 17.744573,3.3004619 14.947367,2.0001254 12,2 Z m 0.265625,2.9189453 c 0.402994,-0.0016 0.799853,0.021574 1.19336,0.05957 0.796659,0.1171559 1.429161,0.3820719 1.820312,0.7617189 C 15.670448,6.1198815 16,6.654762 16,8 c 0,1.2261905 -0.330537,2.379634 -0.941406,2.85167 -0.610869,0.472035 -1.660441,0.882852 -2.829102,1.042215 -0.825428,0.112558 -1.670466,0.128736 -2.4248045,0.106445 L 11.035156,5.008789 c 0.418348,-0.061869 0.827475,-0.088243 1.230469,-0.089844 z"/>
 <path style="opacity:0.2;fill:#ffffff" d="M 12,2 A 10,10 0 0 0 2.0705,10.926 10,9.5 0 0 1 12,2.5 10,9.5 0 0 1 21.961,11.2235 10,10 0 0 0 12,2 Z m 9.961,9.2235 A 10,10 0 0 1 22,12 10,9.5 0 0 0 21.961,11.2235 Z M 2.0705,10.926 A 10,9.5 0 0 0 2.0461,11.122 10,10 0 0 1 2.0705,10.926 Z M 2.0461,11.122 A 10,10 0 0 0 2.0002,12 10,9.5 0 0 1 2.0461,11.122 Z"/>
</svg>
